stepxx_web3/step06_dapps/step02_auth_with_wallet/public/icons/money-check-dollar-solid.svg

<svg xmlns="http://www.w3.org/2000/svg" fill="#fff" viewBox="0 0 576 512"><!--! Font Awesome Pro 6.1.1 by @fontawesome - https://fontawesome.com License - https://fontawesome.com/license (Commercial License) Copyright 2022 Fonticons, Inc.--><path d="M512 64c35.3 0 64 28.65 64 64v256c0 35.3-28.7 64-64 64H64c-35.35 0-64-28.7-64-64V128c0-35.35 28.65-64 64-64h448zM272 192c-8.8 0-16 7.2-16 16s7.2 16 16 16h224c8.8 0 16-7.2 16-16s-7.2-16-16-16H272zm0 128h224c8.8 0 16-7.2 16-16s-7.2-16-16-16H272c-8.8 0-16 7.2-16 16s7.2 16 16 16zM164.1 160c0-11.1-9-20.1-21-20.1-10.2 0-19.2 9-19.2 20.1v6c-5.6 1.2-11.8 2.9-15.9 5.1-14.94 6.8-27.93 19.4-31.09 37.7-1.77 10.2-.83 20.1 3.41 29 4.15 8.8 10.68 15 17.31 19.5 11.57 7.9 26.87 12.5 38.57 16l2.2.6c14 4.3 23.4 7.4 29.3 11.7 2.5 1.8 3.4 3.2 3.7 4.1.4.8 1 2.6.3 6.6-.6 3.5-2.5 6.5-8 8.8-6.1 2.6-16 3.9-28.8 1.9-6-1-16.7-4.6-26.2-7.8-2.2-.8-4.4-1.5-6.4-2.2-10.46-3.5-21.79 2.2-25.28 12.7-3.49 10.5 2.18 21.8 12.66 24.4 1.21 1.3 2.71 1.8 4.43 2.4 6.99 2.7 20.29 6.9 29.79 9.1v6.4c0 11.1 9 20.1 19.2 20.1 12 0 21-9 21-20.1v-5.5c5.3-1 10.5-3.4 15.3-4.6 15.8-6.7 28.4-19.7 31.7-38.7 1.8-10.4 1-20.4-3-29.5-3.9-9-10.2-15.6-16.9-20.4-12.1-8.9-28.3-13.7-40.4-17.4l-1.7-.2c-13.3-4.3-22.9-7.3-29-11.5-2.6-1.8-3.4-3-3.6-3.5-.2-.4-.8-1.6-.2-5 .4-2 1.9-5.3 8.2-8.1 5.6-2.9 16.4-4.5 28.6-3.5 4.4 1.6 17.9 4.2 21.8 5.2 10.6 2.9 21.6-3.5 24.4-14.2 2.9-10.6-3.5-21.6-14.2-24.4-4.4-1.2-14.4-3.2-21-4.4V160z"/></svg>

<svg xmlns="http://www.w3.org/2000/svg" fill="#ffffff" viewBox="0 0 576 512"><!--! Font Awesome Pro 6.1.1 by @fontawesome - https://fontawesome.com License - https://fontawesome.com/license (Commercial License) Copyright 2022 Fonticons, Inc. --><path d="M512 64C547.3 64 576 92.65 576 128V384C576 419.3 547.3 448 512 448H64C28.65 448 0 419.3 0 384V128C0 92.65 28.65 64 64 64H512zM272 192C263.2 192 256 199.2 256 208C256 216.8 263.2 224 272 224H496C504.8 224 512 216.8 512 208C512 199.2 504.8 192 496 192H272zM272 320H496C504.8 320 512 312.8 512 304C512 295.2 504.8 288 496 288H272C263.2 288 256 295.2 256 304C256 312.8 263.2 320 272 320zM164.1 160C164.1 148.9 155.1 139.9 143.1 139.9C132.9 139.9 123.9 148.9 123.9 160V166C118.3 167.2 112.1 168.9 108 171.1C93.06 177.9 80.07 190.5 76.91 208.8C75.14 219 76.08 228.9 80.32 237.8C84.47 246.6 91 252.8 97.63 257.3C109.2 265.2 124.5 269.8 136.2 273.3L138.4 273.9C152.4 278.2 161.8 281.3 167.7 285.6C170.2 287.4 171.1 288.8 171.4 289.7C171.8 290.5 172.4 292.3 171.7 296.3C171.1 299.8 169.2 302.8 163.7 305.1C157.6 307.7 147.7 309 134.9 307C128.9 306 118.2 302.4 108.7 299.2C106.5 298.4 104.3 297.7 102.3 297C91.84 293.5 80.51 299.2 77.02 309.7C73.53 320.2 79.2 331.5 89.68 334.1C90.89 335.4 92.39 335.9 94.11 336.5C101.1 339.2 114.4 343.4 123.9 345.6V352C123.9 363.1 132.9 372.1 143.1 372.1C155.1 372.1 164.1 363.1 164.1 352V346.5C169.4 345.5 174.6 343.1 179.4 341.9C195.2 335.2 207.8 322.2 211.1 303.2C212.9 292.8 212.1 282.8 208.1 273.7C204.2 264.7 197.9 258.1 191.2 253.3C179.1 244.4 162.9 239.6 150.8 235.9L149.1 235.7C135.8 231.4 126.2 228.4 120.1 224.2C117.5 222.4 116.7 221.2 116.5 220.7C116.3 220.3 115.7 219.1 116.3 215.7C116.7 213.7 118.2 210.4 124.5 207.6C130.1 204.7 140.9 203.1 153.1 204.1C157.5 205.7 171 208.3 174.9 209.3C185.5 212.2 196.5 205.8 199.3 195.1C202.2 184.5 195.8 173.5 185.1 170.7C180.7 169.5 170.7 167.5 164.1 166.3L164.1 160z"/></svg>
